!!!OTL: Nachreue
!!!ARE: Europa, Mitteleuropa, Deutschland
!!!SCT: A0213
!!!YEM: Copyright 1995, estate of Helmut Schaffrath.
**kern
*ICvox
*Ivox
*M6/2
*k[b-]
*F:
{2f
=1
1f
2f
1a
2f
=2
1a
2b-
1cc}
{2cc
=3
1a
2dd
1cc
2b-
=4
2a
4g
4f
2g
1f}
{2f
=5
1f
2f
1a
2f
=6
1a
2b-
1cc}
{2cc
=7
1a
2dd
1cc
2b-
=8
2a
4g
4f
2g
1f}
{2f
=9
1a
2a
2.g
4a
2b-
=10
1cc
2b-
1cc}
{2cc
=11
1cc
2cc
1dd
2dd
=12
2cc
4b-
4a
2b-
1a}
{2a
=13
1a
2f
1g
2cc
=14
1dd
2dd
2.cc
4b-}
{4a
4g
=15
2f
1b-
2a
1g
=16
[1.f
1f]}
==
!!!AGN: Romanze, Ballade, Lied
!! Rhaw, Bicinia 1541. Tom. I. No. 90.
!!!ONB: ESAC (Essen Associative Code) Database: ALTDEU
!!!AMT: compound duple
!!!AIN: vox
!!!EED: Helmut Schaffrath
!!!EEV: 1.0
*-
